X:1
T:Sigh no more, ladies
T:RJS Stevens (1757 - 1837)
T:Shakespeare
T:TCPB3
T:Sigh no more, ladies
T:Copyright © 2015 by CPDL This edition can be fully distributed, duplicated, performed and recorded
T:from “Much ado about nothing”
T:Copyright © 2015 by CPDL This edition can be fully distributed, duplicated, performed and recorded
T:Copyright © 2015 by CPDL This edition can be fully distributed, duplicated, performed and recorded
C:RJS Stevens
C:(1757 - 1837)
Z:Shakespeare
Z:Copyright © 2015 by CPDL
Z:This edition can be fully distributed, duplicated, performed and recorded
%%score ( 1 2 ) { ( 3 4 ) | ( 5 6 ) }
L:1/8
Q:1/4=80
M:2/4
K:G
V:1 treble nm="Voice" snm="Voice"
V:2 treble 
V:3 treble nm="Piano" snm="Pno."
V:4 treble 
V:5 bass 
V:6 bass 
V:1
"^Andante con moto" z4 | z4 | z4 | z4 |:!mf!"^1.""^2." Bc d2 | c2 B2 | (AG) (cB) | (B2 A2) | %8
w: ||||Sigh no more,|la- dies,|sigh _ no more,||
w: ||||Sing no more|dit- ties,|sing _ no _|more, *|
 BB/c/ dB | ed z2 | dc/B/ AG | AG z2 |!f! A2 A>A | d3 d | (G>A B)c | (B2 A)A | BB AG | %17
w: Men were de- cei- vers|e- ver,|Men were de- cei- vers|e- ver;|One foot in|sea, and|one _ _ on|shore, _ To|one thing con- stant|
w: dumps so _ dull and|hea- vy,|dumps so _ dull and|hea- vy;|* fraud of|men was|e- * * ver|so, _ Since|sum- mer first was|
 A G2"^dim." B | (c/B/) (A/G/) FG | F E3 |!f! G2 G>G | G4 | A2 A>A | A3 A | Bc d (c/B/) | ed z d | %26
w: ne- ver, To|one _ thing _ con- stant|ne- ver.|Then sigh not|so,|But let them|go, And|be you blithe and _|bon- ny, And|
w: lea- fy, Since|sum- * mer _ first was|lea- fy.|||||||
 d (e/d/) (e/d/) (c/B/) | BA z!mf! D | D (E/F/) G (A/B/) | c (B/A/) BG | G (A/B/) c (B/c/) | %31
w: be you _ blithe _ and _|bon- ny; Con-|vert- ing _ all your _|sounds of _ woe, Con-|vert- ing _ all your _|
w: |||||
 d (c/d/) !fermata!e!f!e | d2 BG | AG z2 |!p! d2 cB | BA z2 |"^cresc." d2 cB | ed z2 |!f! d2 BG | %39
w: sounds of _ woe; To|hey, non- ny,|non- ny.|Hey, non- ny,|non- ny,|Hey, non- ny,|non- ny,|Hey, non- ny,|
w: ||||||||
 A G3 :| %40
w: non- ny.|
w: |
V:2
 x4 | x4 | x4 | x4 |: x4 | x4 | x4 | (x2 A)A | x (B/c/) x2 | x2 z d | x (c/B/) x2 | x4 | z A x2 | %13
w: |||||||||||||
w: |||||||* Of||Of|||The|
 x4 | x4 | x4 | x4 | x4 | x4 | x4 | x4 | x4 | x4 | x4 | x4 | x4 | x4 | x4 | x4 | x4 | x4 | x4 | %32
w: |||||||||||||||||||
w: |||||||||||||||||||
 x4 | x4 | x4 | x4 | x4 | x4 | x4 | x4 :| %40
w: ||||||||
w: ||||||||
V:3
!mf!"^Andante con moto" ([GB][Fc]) d2 | (c2 [DGB]2) | ([EA][DG]) ([Fc][GB]) | ([GB]2 [FA]2) |: %4
!mf! (Bc) d2 | ([DFc]2 [DGB]2) | ([DFA][DG]) ([DFc][DGB]) | ([DGB]2 [DFA]2) | (BB/c/ dB | ed) z2 | %10
 (dc/B/ [EA][DG] | [CFA][B,G]) z2 |!f! [DFA]2 [DFA]>[DFA] | [DGd]3 [DGd] | ([EG]>[FA][GB])[EAc] | %15
 ([GB]2 [FA])A | [DB][EB] [^DA][EG] | ([FA] [EG]2) [GB] | (c/B/A/)G/ [EF][EG] | ([^DF] E3) | %20
!f! [B,!courtesy!=DG]2 [B,DG]2 | [CEG]4 | [CEA]2 [EA]>[EA] | [FA]3 A | [GB][Fc] [DGd]([Fc]/[GB]/) | %25
 ([Ee][Dd]) z [Gd] | (de/d/ e/d/c/B/) | ([GB] [FA]2)!mf! (D | DE/F/ GA/B/ | cB/A/ [DB])([B,G] | %30
 [B,G][CA]/[DB]/ cB/c/ | d c/d/) !fermata![Ge]!f![Ge] | [Gd]2 [GB][DG] | [DFA][DG]!p! (D2 | %34
 [DGd]2) [DFc][DGB] | ([GB][FA]) z2 | [Gd]2 [Fc][GB] | (ed) z2 | [Gd]2 [DB][DG] | ([CA] [B,G]3) :| %40
V:4
 x2 GD | EF x2 | x2 D2 | D4 |: [DG]2 [DG]2 | x4 | x4 | x4 | D2 G2 | G2 !>!G2 | G2 x2 | x4 | x4 | %13
 x4 | x4 | D3 D | x4 | x4 | E2 x2 | x4 | x4 | x4 | x4 | (D/E/F/E/ F/D/E/F/) | D2 x D | G2 x2 | %26
 G2 G2 | x4 | D2 D2 | DF x2 | x2 C=F/E/ | G2 x2 | x4 | x4 | x4 | D2 x2 | x4 | G2 !>!G2 | x4 | x4 :| %40
V:5
 G,A, B,2 | A,2 G,2 | CB, A,G, | D,4 |: G,A, B,2 | A,2 G,2 | CB, A,G, | D,4 | G,G,/A,/ B,G, | %9
 CB, z2 | B,A,/G,/ CB, | D,G, z2 | D,2 D,>D, | [B,,B,]3 [B,,B,] | E,3 C, | D,3 F, | %16
 G,G, [F,A,][E,B,] | B,3"^dim." B, | [A,,A,]2 [B,,A,][B,,B,] | [B,,A,] [E,G,]3 | %20
 [G,,G,]2 [G,,G,]2 | C,/D,/E,/D,/ E,/D,/C,/B,,/ | A,,>B,, C,/A,,/B,,/C,/ | D,3 [C,C] | %24
 [B,,B,][A,,A,] [B,,B,][A,,A,]/[G,,G,]/ | [C,C][B,,B,] z B, | B,C/B,/ C/B,/A,/G,/ | [D,D]3 D, | %28
 C2 B,A,/G,/ | F,D, G,G, | x2 G,2 | G,2 !fermata![C,G,][C,G,] | [D,B,]2 [D,D][D,B,] | %33
 [D,C][G,B,] z2 | B,2 A,G, | D,2"^cresc." [D,D-]2 | x2 D2 | [C,C][G,B,] z2 | %38
!f! [B,,G,]2 [G,,G,][B,,G,] | [D,F,] [G,,G,]3 :| %40
V:6
 x4 | x4 | x4 | x4 |: x4 | x4 | x4 | x4 | x4 | x4 | x4 | x4 | x4 | x4 | x4 | x4 | x4 | ^D, E,2 E, | %18
 x4 | x4 | x4 | x4 | x4 | x4 | x4 | x4 | x4 | x4 | x4 | x4 | =F,2 E,D,/C,/ | B,,G,, x2 | x4 | x4 | %34
 x4 | x4 | [B,D]2 A,G, | x4 | x4 | x4 :| %40

